assets/svg/icon_categories_science.svg

<svg width="24" height="24" viewBox="0 0 24 24" fill="none" xmlns="http://www.w3.org/2000/svg">
    <path
        d="M11.2122 8.51087C10.316 9.19033 9.46798 9.93113 8.67428 10.7279C4.9345 14.4677 3.04094 18.6348 4.4427 20.0379C5.84446 21.4397 10.0129 19.5448 13.7514 15.8063C14.5482 15.0122 15.289 14.1638 15.9684 13.2671C18.1736 16.1943 19.0718 18.9478 17.983 20.0366C16.5799 21.4397 12.4128 19.5448 8.67297 15.8063C4.93582 12.0652 3.04226 7.89941 4.44402 6.49633C5.53281 5.40885 8.28637 6.30698 11.2135 8.51087M10.5547 13.2671C10.5547 13.4415 10.624 13.6087 10.7473 13.732C10.8706 13.8553 11.0378 13.9246 11.2122 13.9246C11.3866 13.9246 11.5538 13.8553 11.6771 13.732C11.8004 13.6087 11.8697 13.4415 11.8697 13.2671C11.8697 13.0928 11.8004 12.9255 11.6771 12.8022C11.5538 12.6789 11.3866 12.6096 11.2122 12.6096C11.0378 12.6096 10.8706 12.6789 10.7473 12.8022C10.624 12.9255 10.5547 13.0928 10.5547 13.2671ZM13.8553 7.54174C13.4411 7.46941 13.4411 6.87636 13.8553 6.80535C14.5871 6.67859 15.2644 6.33652 15.8008 5.82284C16.3372 5.30917 16.7083 4.64723 16.8666 3.92162L16.8902 3.80722C16.9797 3.39957 17.5609 3.39694 17.6529 3.80327L17.6845 3.93608C17.8495 4.6581 18.2241 5.31532 18.7612 5.82529C19.2983 6.33526 19.974 6.67529 20.7037 6.80272C21.1192 6.87505 21.1192 7.47204 20.7037 7.54305C19.974 7.67048 19.2983 8.01051 18.7612 8.52048C18.2241 9.03046 17.8495 9.68767 17.6845 10.4097L17.6529 10.5425C17.5609 10.9501 16.9797 10.9475 16.8902 10.5399L16.8639 10.4255C16.7056 9.69986 16.3346 9.03792 15.7982 8.52425C15.2618 8.01057 14.5844 7.6685 13.8526 7.54174H13.8553Z"
        stroke="#9A9A9A" stroke-width="1.2" stroke-linecap="round" stroke-linejoin="round" />
</svg>

<svg xmlns="http://www.w3.org/2000/svg" width="24" height="24" fill="none"><path stroke="#9A9A9A" stroke-linecap="round" stroke-linejoin="round" stroke-width="1.2" d="M11.212 8.51q-1.346 1.021-2.538 2.218c-3.74 3.74-5.633 7.907-4.231 9.31 1.401 1.402 5.57-.493 9.308-4.232a24 24 0 0 0 2.217-2.539c2.206 2.927 3.104 5.68 2.015 6.77-1.403 1.403-5.57-.492-9.31-4.23-3.737-3.742-5.63-7.908-4.229-9.31 1.089-1.088 3.842-.19 6.77 2.014m-.66 4.756a.657.657 0 1 0 1.316 0 .657.657 0 0 0-1.315 0m3.301-5.725c-.414-.073-.414-.666 0-.737a3.73 3.73 0 0 0 3.012-2.883l.023-.115c.09-.407.67-.41.763-.004l.032.133a3.76 3.76 0 0 0 3.019 2.867c.415.072.415.669 0 .74a3.76 3.76 0 0 0-3.02 2.867l-.031.133c-.092.407-.673.405-.763-.003l-.026-.114a3.73 3.73 0 0 0-3.011-2.884z"/></svg>
